X:1
T:James Gibb editions
T:Psalm 131 (Becker) - Schütz
%%score [ ( 1 2 ) ( 3 4 ) ]
L:1/8
Q:1/4=98
M:2/2
K:C
V:1 treble nm="Soprano Alto"
V:2 treble 
V:3 bass nm="Tenor Bass"
V:4 bass 
V:1
"^Cornelius Becker\n(1561-1604)""^Psalm 131, SWV 236""^Heinrich Schütz\n(1585-1672)" F4 G4 | %1
w: ~Herr, mein|
w: ich hab|
 A2 F4 G2 | A2 _B2 A4 | D4 A4- | A2 B2 c2 d2 | B4 A4 :|[M:2/2] ^F4 A4 | ^F2 F4 G2 | G2 ^F2 G4 | %9
w: Ge- müt und|Sinn du weißt,|daß ich|* nicht bin ver-|mes- sen,|Vor dir|schämt sich mein|An- ge- sicht,|
w: kein hoch- tra-|ben- den Geist,|Stolz hat|* mich nicht be-|ses- sen.||||
 B4 c4 | A2 d4 c2 | _B2 A2 G4 | F4 G4- | G2 A2 _B2 =F2 | E8 | D8 |] %16
w: was mir|zu schwer, er-|forsch ich nicht,|seh nicht|* nach ho- hen|Din-|gen.|
w: |||||||
V:2
 D4 E4 | E2 D4 D2 | F2 E2 F4 | F4 F4- | F2 G2 E2 F2 | E4 E4 :|[M:2/2] D4 D4 | D2 D4 D2 | E2 D2 D4 | %9
 G4 G4 | F2 F4 C2 | D2 F2 E4 | D4 E4- | E2 ^F2 G2 D2- | D2 (^CB, !courtesy!^C4) | D8 |] %16
V:3
 A,4 C4 | C2 _B,4 B,2 | A,2 G,2 C4 | _B,4 C4- | C2 E2 C2 A,2 | ^G,4 A,4 :|[M:2/2] A,4 ^F,4 | %7
 A,2 A,4 B,2 | A,2 A,2 B,4 | D4 E4 | C2 D4 F2 | %11
"^2. Mein Herz sehnt sich nach deinem Wort,\nmein Seel nach dir verlanget,\ngleich wie ein Kind der Mutter fort\nan ihren Brüsten hanget;\nwo meine Seel nicht Trost empfindt't,\nso tuts ihr bang, gleich wie dem Kind,\ndas die Mutter entwöhnet.\n\n3. Darum hoff nur getrost auf Gott,\nver laß dich auf sein Gnade,\nwer Gott vertraut in aller Not,\ndem muß zuletzt geraten.\nTrau fest, du liebes Israel,\nGott wend dein Leid und Ungefäll\njetzt und zu ewgen Zeiten!" _B,2 C2 C4 | %12
 A,4 C4- | C2 C2 D2 A,2 | A,8 | A,8 |] %16
V:4
 D,4 C,4 | A,,2 _B,,4 G,,2 | D,2 G,2 F,4 | _B,,4 F,4- | F,2 E,2 A,2 D,2 | E,4 A,,4 :| %6
[M:2/2] D,4 D,4 | D,2 D,4 B,,2 | C,2 D,2 G,,4 | G,4 C,4 | F,2 _B,4 A,2 | G,2 F,2 C,4 | D,4 C,4- | %13
 C,2 A,,2 G,,2 D,2 | A,,8 | D,8 |] %16

